src/app/assets/svg/screenshare.svg

<?xml version="1.0" encoding="UTF-8"?>
<svg width="53px" height="48px" viewBox="0 0 53 48" version="1.1" xmlns="http://www.w3.org/2000/svg" xmlns:xlink="http://www.w3.org/1999/xlink">
    <title>sharing-circle copy</title>
    <defs>
        <polygon id="path-1" points="0.337524413 0.102786965 25.9445177 0.102786965 25.9445177 24.9377998 0.337524413 24.9377998"></polygon>
        <polygon id="path-3" points="0 0.265574692 35.1787473 0.265574692 35.1787473 29.4341643 0 29.4341643"></polygon>
    </defs>
    <g id="Page-1" stroke="none" stroke-width="1" fill="none" fill-rule="evenodd">
        <g id="Blue-Sky-Product-Page" transform="translate(-1050.000000, -3620.000000)">
            <g id="sharing-circle-copy" transform="translate(1050.000000, 3620.000000)">
                <g id="sharing-icon" transform="translate(0.000000, -0.000000)">
                    <g id="Group-3" transform="translate(27.032760, 0.000000)">
                        <mask id="mask-2" fill="white">
                            <use xlink:href="#path-1"></use>
                        </mask>
                        <g id="Clip-2"></g>
                        <path d="M23.547382,0.10260008 L2.73369744,0.10260008 C1.41575414,0.10260008 0.337524413,1.14915827 0.337524413,2.42932321 L0.337524413,15.9878584 L6.5845179,15.9878584 C8.42328467,15.9878584 9.9164403,17.4362202 9.9164403,19.2209756 L9.9164403,20.1740911 L11.8899858,20.1740911 L11.8899858,21.8840925 L9.9164403,22.1176992 L9.9164403,24.5658978 L13.0163508,24.2014713 L13.0259778,24.2014713 L19.1959549,24.9284555 C19.247941,24.9349965 19.2989643,24.9377998 19.3499877,24.9377998 C19.9747833,24.9377998 20.5167863,24.4846027 20.5938027,23.8669465 C20.6765954,23.1988312 20.1865785,22.5914537 19.499207,22.511093 L14.3920564,21.909322 L14.3920564,20.1740911 L23.547382,20.1740911 C24.8759151,20.1740911 25.9445177,19.1368772 25.9445177,17.847368 L25.9445177,2.42932321 C25.9445177,1.14915827 24.8759151,0.10260008 23.547382,0.10260008" id="Fill-1" fill="#4273B9" mask="url(#mask-2)"></path>
                    </g>
                    <g id="Group-6" transform="translate(0.000000, 17.870916)">
                        <mask id="mask-4" fill="white">
                            <use xlink:href="#path-3"></use>
                        </mask>
                        <g id="Clip-5"></g>
                        <path d="M33.0194986,0.265574692 L28.0513158,0.265574692 L2.16899398,0.265574692 C0.974719258,0.265574692 -0.000764335823,1.22456804 -0.000764335823,2.42093597 L-0.000764335823,21.5533279 C-0.000764335823,22.7402009 0.974719258,23.6991942 2.16899398,23.6991942 L16.3951945,23.6991942 L16.3951945,25.7596057 L16.3951945,26.4242545 L11.0352895,27.0699134 C10.3760499,27.1458733 9.90789418,27.7345623 9.99292654,28.3897161 C10.0607613,28.9879001 10.576688,29.4341643 11.1786025,29.4341643 C11.2254181,29.4341643 11.2741445,29.4341643 11.3219155,29.4246694 L17.472908,28.6850101 L23.6057475,29.4237199 C23.654474,29.4303663 23.7032004,29.4332148 23.7519268,29.4332148 C24.3471533,29.4332148 24.8621246,28.9907486 24.9356919,28.3887666 C25.0149917,27.7383603 24.5487469,27.1468228 23.8933289,27.0680144 L18.7837439,26.45179 L18.7837439,25.7596057 L18.7837439,23.6991942 L33.0194986,23.6991942 C34.2137733,23.6991942 35.1787473,22.7402009 35.1787473,21.5533279 L35.1787473,7.20640771 L35.1787473,4.70922702 L35.1787473,2.45891591 L35.1787473,2.42093597 C35.1787473,1.22456804 34.2137733,0.265574692 33.0194986,0.265574692" id="Fill-4" fill="#4273B9" mask="url(#mask-4)"></path>
                    </g>
                    <path d="M15.8203154,14.6114114 C15.9281409,14.7524957 16.1401675,14.7524957 16.247993,14.6114114 L18.4942066,11.6770414 C18.6319333,11.4983957 18.5050798,11.2372982 18.2812739,11.2372982 L17.4893454,11.2372982 L17.4893454,7.16967331 L21.5115084,7.16967331 L21.5115084,7.97037244 C21.5115084,8.19757311 21.7688399,8.32583155 21.9473409,8.18657953 L24.8486624,5.91457283 C24.9882013,5.80555315 24.9882013,5.59209446 24.8486624,5.48307478 L21.9473409,3.21106809 C21.7688399,3.07273219 21.5115084,3.2000745 21.5115084,3.42727517 L21.5115084,4.22797431 L16.0332481,4.22797431 C15.2304465,4.22797431 14.5780569,4.88575689 14.5780569,5.69836574 L14.5780569,11.2372982 L13.7870345,11.2372982 C13.5623226,11.2372982 13.435469,11.4983957 13.5741018,11.6770414 L15.8203154,14.6114114 Z" id="Fill-7" fill="#4273B9"></path>
                </g>
            </g>
        </g>
    </g>
</svg>

<svg xmlns="http://www.w3.org/2000/svg" xmlns:xlink="http://www.w3.org/1999/xlink" width="53" height="48"><defs/><defs><path id="a" d="M.338.103h25.607v24.835H.338z"/><path id="c" d="M0 .266h35.179v29.168H0z"/></defs><g fill="none" fill-rule="evenodd"><g transform="translate(27.033)"><mask id="b" fill="#fff"><use xlink:href="#a"/></mask><path fill="#4273B9" d="M23.547.103H2.734C1.416.103.338 1.149.338 2.429v13.559h6.247c1.838 0 3.331 1.448 3.331 3.233v.953h1.974v1.71l-1.974.234v2.448l3.1-.365h.01l6.17.727c.052.007.103.01.154.01.625 0 1.167-.453 1.244-1.071.083-.668-.407-1.276-1.095-1.356l-5.107-.602v-1.735h9.155c1.329 0 2.398-1.037 2.398-2.327V2.43c0-1.28-1.07-2.326-2.398-2.326" mask="url(#b)"/></g><g transform="translate(0 17.87)"><mask id="d" fill="#fff"><use xlink:href="#c"/></mask><path fill="#4273B9" d="M33.02.266H2.168c-1.194 0-2.17.959-2.17 2.155v19.132C0 22.74.975 23.7 2.17 23.7h14.226v2.725l-5.36.646a1.177 1.177 0 00-1.042 1.32 1.188 1.188 0 001.186 1.044c.046 0 .095 0 .143-.01l6.15-.739 6.134.739a1.192 1.192 0 001.33-1.035 1.188 1.188 0 00-1.043-1.321l-5.11-.616V23.7H33.02a2.15 2.15 0 002.16-2.147V2.421a2.152 2.152 0 00-2.16-2.155" mask="url(#d)"/></g><path fill="#4273B9" d="M15.82 14.611c.108.141.32.141.428 0l2.246-2.934a.273.273 0 00-.213-.44h-.792V7.17h4.023v.8a.27.27 0 00.435.217l2.902-2.272a.275.275 0 000-.432l-2.902-2.272a.27.27 0 00-.435.216v.801h-5.479c-.803 0-1.455.658-1.455 1.47v5.54h-.791a.272.272 0 00-.213.439l2.246 2.934z"/></g></svg>
